X: 31292
T: Paddy Jones'
R: polka
M: 2/4
K: Amajor
e>f ec|A2 A>f|ec BA/B/|cB Bc|
e>f ec|A2 A>f|ec BA/B/|1 cA Ac:|2 cA A2||
|:Ac ec|df aa|Ac e>f|ec Bc/B/|
Ac ec|df aa|cd/c/ Bc|1 BA A>E:|2 BA Ac||

